Sweet-Rainbow/icons/searchmonkey.svg

<?xml version="1.0" encoding="UTF-8" standalone="no"?>
<!-- Generator: Gravit.io -->

<svg
   xmlns:dc="http://purl.org/dc/elements/1.1/"
   xmlns:cc="http://creativecommons.org/ns#"
   xmlns:rdf="http://www.w3.org/1999/02/22-rdf-syntax-ns#"
   xmlns:svg="http://www.w3.org/2000/svg"
   xmlns="http://www.w3.org/2000/svg"
   xmlns:sodipodi="http://sodipodi.sourceforge.net/DTD/sodipodi-0.dtd"
   xmlns:inkscape="http://www.inkscape.org/namespaces/inkscape"
   style="isolation:isolate"
   viewBox="0 0 36 36"
   width="48"
   height="48"
   version="1.1"
   id="svg11"
   sodipodi:docname="searchmonkey.svg"
   inkscape:version="0.92.4 (5da689c313, 2019-01-14)">
  <metadata
     id="metadata17">
    <rdf:RDF>
      <cc:Work
         rdf:about="">
        <dc:format>image/svg+xml</dc:format>
        <dc:type
           rdf:resource="http://purl.org/dc/dcmitype/StillImage" />
        <dc:title></dc:title>
      </cc:Work>
    </rdf:RDF>
  </metadata>
  <defs
     id="defs15" />
  <sodipodi:namedview
     pagecolor="#ffffff"
     bordercolor="#666666"
     borderopacity="1"
     objecttolerance="10"
     gridtolerance="10"
     guidetolerance="10"
     inkscape:pageopacity="0"
     inkscape:pageshadow="2"
     inkscape:window-width="640"
     inkscape:window-height="480"
     id="namedview13"
     showgrid="false"
     inkscape:zoom="29.365243"
     inkscape:cx="25.325443"
     inkscape:cy="32"
     inkscape:current-layer="svg11"
     units="px" />
  <linearGradient
     id="_lgradient_0"
     x1="-0.014458464"
     y1="0.009839246"
     x2="1.0164566"
     y2="1.072293"
     gradientTransform="matrix(-43.76,0,0,44.88,45.88,1.56)"
     gradientUnits="userSpaceOnUse">
    <stop
       offset="1.3043478260869565%"
       stop-opacity="1"
       style="stop-color:rgb(254,172,94)"
       id="stop2" />
    <stop
       offset="53.04347826086957%"
       stop-opacity="1"
       style="stop-color:rgb(199,121,208)"
       id="stop4" />
    <stop
       offset="99.56521739130434%"
       stop-opacity="1"
       style="stop-color:rgb(75,192,200)"
       id="stop6" />
  </linearGradient>
  <g
     id="g825"
     transform="matrix(0.80213904,0,0,0.80213904,-1.2513508,-1.251337)">
    <path
       id="path9"
       d="m 23.492,26.801 v 0 c -0.697,-0.446 -1.627,-0.242 -2.075,0.455 v 0 c -0.447,0.697 -0.245,1.624 0.452,2.069 v 0 c 1.154,0.749 2.431,1.291 3.761,1.62 3.214,0.794 6.627,0.278 9.46,-1.432 2.834,-1.71 4.88,-4.49 5.675,-7.703 0.794,-3.214 0.278,-6.627 -1.432,-9.46 -1.71,-2.834 -4.49,-4.88 -7.703,-5.675 -3.214,-0.794 -6.627,-0.278 -9.46,1.432 -2.834,1.71 -4.88,4.49 -5.675,7.703 -0.233,0.942 -0.359,1.91 -0.363,2.888 v 0 c -0.011,0.827 0.652,1.505 1.48,1.514 v 0 c 0.828,0.008 1.509,-0.656 1.52,-1.484 v 0 c 0.008,-0.739 0.098,-1.479 0.276,-2.198 0.604,-2.446 2.156,-4.555 4.311,-5.856 2.155,-1.301 4.744,-1.691 7.191,-1.086 2.446,0.604 4.555,2.156 5.856,4.311 1.301,2.155 1.691,4.744 1.086,7.191 -0.604,2.446 -2.156,4.555 -4.311,5.856 -2.155,1.301 -4.744,1.691 -7.191,1.086 -1.009,-0.249 -1.978,-0.664 -2.858,-1.231 z m -3.488,-4.015 v 0 C 19.66,22.036 18.77,21.71 18.015,22.058 v 0 c -0.754,0.348 -1.083,1.24 -0.734,1.992 v 0 c 0.222,0.477 0.468,0.94 0.751,1.38 v 0 c 0.439,0.706 1.367,0.921 2.07,0.481 v 0 c 0.703,-0.44 0.915,-1.366 0.475,-2.066 v 0 C 20.362,23.503 20.17,23.157 20.004,22.786 Z M 37.73,8.5 v 0 c 0.723,0.64 1.83,0.573 2.47,-0.15 v 0 C 40.84,7.627 40.773,6.52 40.05,5.88 v 0 C 36.9,3.1 32.83,1.56 28.63,1.56 c -4.57,0 -8.96,1.82 -12.2,5.05 -3.23,3.24 -5.05,7.63 -5.05,12.2 0,4.57 1.82,8.96 5.05,12.2 3.24,3.23 7.63,5.05 12.2,5.05 4.55,0 8.92,-1.8 12.15,-5 3.23,-3.2 5.06,-7.56 5.1,-12.11 v 0 c 0.006,-0.966 -0.774,-1.757 -1.74,-1.765 v 0 c -0.966,-0.008 -1.754,0.769 -1.76,1.735 v 0 c -0.03,3.63 -1.49,7.1 -4.07,9.65 -2.57,2.56 -6.05,3.99 -9.68,3.99 -3.65,0 -7.15,-1.45 -9.72,-4.03 -2.58,-2.57 -4.03,-6.07 -4.03,-9.72 0,-3.65 1.45,-7.15 4.03,-9.72 2.57,-2.58 6.07,-4.03 9.72,-4.03 3.35,0 6.59,1.23 9.1,3.44 z m 3.76,5.44 v 0 c 0.342,0.905 1.355,1.362 2.26,1.02 v 0 c 0.905,-0.342 1.362,-1.355 1.02,-2.26 v 0 c -0.25,-0.63 -0.53,-1.26 -0.84,-1.86 v 0 C 43.483,9.979 42.423,9.645 41.565,10.095 v 0 c -0.858,0.45 -1.188,1.51 -0.735,2.365 v 0 c 0.25,0.48 0.47,0.98 0.66,1.48 z M 13.2,31.89 v 0 c 0.651,-0.717 0.6,-1.826 -0.115,-2.475 v 0 C 12.37,28.766 11.261,28.818 10.61,29.53 v 0 l -7.27,8.02 c -0.79,0.86 -1.22,1.98 -1.22,3.14 0,1.36 0.59,2.66 1.62,3.54 l 1.2,1.04 c 0,0 0,0 0,0 0.88,0.76 2,1.17 3.15,1.17 1.36,0 2.66,-0.57 3.57,-1.57 0,0 0,0 0.01,0 l 7.27,-8.02 v 0 c 0.651,-0.717 0.6,-1.826 -0.115,-2.475 v 0 C 18.11,33.726 17.001,33.783 16.35,34.5 v 0 l -7.27,8.01 c -0.26,0.28 -0.61,0.43 -0.99,0.43 -0.31,0 -0.62,-0.11 -0.86,-0.32 l -1.2,-1.04 c 0,0 0,0 0,0 -0.26,-0.22 -0.41,-0.54 -0.41,-0.89 0,-0.29 0.11,-0.57 0.3,-0.79 0.01,0 0.01,0 0.01,0 z"
       style="fill:url(#_lgradient_0);fill-rule:evenodd"
       inkscape:connector-curvature="0" />
  </g>
</svg>

<?xml version="1.0" encoding="UTF-8" standalone="no"?><!-- Generator: Gravit.io --><svg xmlns="http://www.w3.org/2000/svg" xmlns:xlink="http://www.w3.org/1999/xlink" style="isolation:isolate" viewBox="0 0 48 48" width="48pt" height="48pt"><linearGradient id="_lgradient_0" x1="-0.014458464773922156" y1="0.009839246119734024" x2="1.0164565923220248" y2="1.0722930524759795" gradientTransform="matrix(-43.76,0,0,44.88,45.88,1.56)" gradientUnits="userSpaceOnUse"><stop offset="1.3043478260869565%" stop-opacity="1" style="stop-color:rgb(254,172,94)"/><stop offset="53.04347826086957%" stop-opacity="1" style="stop-color:rgb(199,121,208)"/><stop offset="99.56521739130434%" stop-opacity="1" style="stop-color:rgb(75,192,200)"/></linearGradient><path d=" M 23.492 26.801 L 23.492 26.801 C 22.795 26.355 21.865 26.559 21.417 27.256 L 21.417 27.256 C 20.97 27.953 21.172 28.88 21.869 29.325 L 21.869 29.325 C 23.023 30.074 24.3 30.616 25.63 30.945 C 28.844 31.739 32.257 31.223 35.09 29.513 C 37.924 27.803 39.97 25.023 40.765 21.81 C 41.559 18.596 41.043 15.183 39.333 12.35 C 37.623 9.516 34.843 7.47 31.63 6.675 C 28.416 5.881 25.003 6.397 22.17 8.107 C 19.336 9.817 17.29 12.597 16.495 15.81 C 16.262 16.752 16.136 17.72 16.132 18.698 L 16.132 18.698 C 16.121 19.525 16.784 20.203 17.612 20.212 L 17.612 20.212 C 18.44 20.22 19.121 19.556 19.132 18.728 L 19.132 18.728 C 19.14 17.989 19.23 17.249 19.408 16.53 C 20.012 14.084 21.564 11.975 23.719 10.674 C 25.874 9.373 28.463 8.983 30.91 9.588 C 33.356 10.192 35.465 11.744 36.766 13.899 C 38.067 16.054 38.457 18.643 37.852 21.09 C 37.248 23.536 35.696 25.645 33.541 26.946 C 31.386 28.247 28.797 28.637 26.35 28.032 C 25.341 27.783 24.372 27.368 23.492 26.801 L 23.492 26.801 L 23.492 26.801 L 23.492 26.801 Z  M 20.004 22.786 L 20.004 22.786 C 19.66 22.036 18.77 21.71 18.015 22.058 L 18.015 22.058 C 17.261 22.406 16.932 23.298 17.281 24.05 L 17.281 24.05 C 17.503 24.527 17.749 24.99 18.032 25.43 L 18.032 25.43 C 18.471 26.136 19.399 26.351 20.102 25.911 L 20.102 25.911 C 20.805 25.471 21.017 24.545 20.577 23.845 L 20.577 23.845 C 20.362 23.503 20.17 23.157 20.004 22.786 L 20.004 22.786 L 20.004 22.786 L 20.004 22.786 Z  M 37.73 8.5 L 37.73 8.5 C 38.453 9.14 39.56 9.073 40.2 8.35 L 40.2 8.35 C 40.84 7.627 40.773 6.52 40.05 5.88 L 40.05 5.88 C 36.9 3.1 32.83 1.56 28.63 1.56 C 24.06 1.56 19.67 3.38 16.43 6.61 C 13.2 9.85 11.38 14.24 11.38 18.81 C 11.38 23.38 13.2 27.77 16.43 31.01 C 19.67 34.24 24.06 36.06 28.63 36.06 C 33.18 36.06 37.55 34.26 40.78 31.06 C 44.01 27.86 45.84 23.5 45.88 18.95 L 45.88 18.95 C 45.886 17.984 45.106 17.193 44.14 17.185 L 44.14 17.185 C 43.174 17.177 42.386 17.954 42.38 18.92 L 42.38 18.92 C 42.35 22.55 40.89 26.02 38.31 28.57 C 35.74 31.13 32.26 32.56 28.63 32.56 C 24.98 32.56 21.48 31.11 18.91 28.53 C 16.33 25.96 14.88 22.46 14.88 18.81 C 14.88 15.16 16.33 11.66 18.91 9.09 C 21.48 6.51 24.98 5.06 28.63 5.06 C 31.98 5.06 35.22 6.29 37.73 8.5 L 37.73 8.5 L 37.73 8.5 Z  M 41.49 13.94 L 41.49 13.94 C 41.832 14.845 42.845 15.302 43.75 14.96 L 43.75 14.96 C 44.655 14.618 45.112 13.605 44.77 12.7 L 44.77 12.7 C 44.52 12.07 44.24 11.44 43.93 10.84 L 43.93 10.84 C 43.483 9.979 42.423 9.645 41.565 10.095 L 41.565 10.095 C 40.707 10.545 40.377 11.605 40.83 12.46 L 40.83 12.46 C 41.08 12.94 41.3 13.44 41.49 13.94 L 41.49 13.94 Z  M 13.2 31.89 L 13.2 31.89 C 13.851 31.173 13.8 30.064 13.085 29.415 L 13.085 29.415 C 12.37 28.766 11.261 28.818 10.61 29.53 L 10.61 29.53 L 3.34 37.55 C 2.55 38.41 2.12 39.53 2.12 40.69 C 2.12 42.05 2.71 43.35 3.74 44.23 L 4.94 45.27 C 4.94 45.27 4.94 45.27 4.94 45.27 C 5.82 46.03 6.94 46.44 8.09 46.44 C 9.45 46.44 10.75 45.87 11.66 44.87 C 11.66 44.87 11.66 44.87 11.67 44.87 L 18.94 36.85 L 18.94 36.85 C 19.591 36.133 19.54 35.024 18.825 34.375 L 18.825 34.375 C 18.11 33.726 17.001 33.783 16.35 34.5 L 16.35 34.5 L 9.08 42.51 C 8.82 42.79 8.47 42.94 8.09 42.94 C 7.78 42.94 7.47 42.83 7.23 42.62 L 6.03 41.58 C 6.03 41.58 6.03 41.58 6.03 41.58 C 5.77 41.36 5.62 41.04 5.62 40.69 C 5.62 40.4 5.73 40.12 5.92 39.9 C 5.93 39.9 5.93 39.9 5.93 39.9 L 13.2 31.89 Z " fill-rule="evenodd" fill="url(#_lgradient_0)"/></svg>
